Papirus/64x64/apps/pcbcalculator.svg

<svg xmlns="http://www.w3.org/2000/svg" width="64" height="64" version="1">
 <path style="opacity:0.2" d="m 4,56 0,2 c 0,1.662 1.338,3 3,3 l 50,0 c 1.662,0 3,-1.338 3,-3 l 0,-2 c 0,1.662 -1.338,3 -3,3 L 7,59 C 5.338,59 4,57.662 4,56 Z"/>
 <path style="fill:#6aa22a" d="m 60,32 0,25 c 0,1.662 -1.338,3 -3,3 l -25,0 0,-28 28,0 z"/>
 <path style="fill:#36862c" d="m 57,4 c 1.662,0 3,1.338 3,3 l 0,25 -28,0 0,-28 25,0 z"/>
 <path style="fill:#71c454" d="m 4,32 0,25 c 0,1.662 1.338,3 3,3 l 25,0 0,-28 -28,0 z"/>
 <path style="fill:#86d478" d="M 7,4 C 5.338,4 4,5.338 4,7 L 4,32 32,32 32,4 7,4 Z"/>
 <path style="opacity:0.2" d="M 61.958,45.848 A 16,16 0 0 1 46,61 16,16 0 0 1 30.042,46.152 16,16 0 0 0 30,47 16,16 0 0 0 46,63 16,16 0 0 0 62,47 16,16 0 0 0 61.95704,45.84766 Z"/>
 <circle style="fill:#3f3f3f;fill-rule:evenodd" cx="46" cy="46" r="16"/>
 <path style="fill:#3f3f3f" d="m 18,12 0,6 -6,0 0,2 6,0 0,6 2,0 0,-6 6,0 0,-2 -6,0 0,-6 z"/>
 <path style="fill:#3f3f3f" d="m 40,18 0,2 12,0 0,-2 z"/>
 <path style="opacity:0.2;fill:#ffffff" d="M 7,4 C 5.338,4 4,5.338 4,7 L 4,8 C 4,6.338 5.338,5 7,5 l 50,0 c 1.662,0 3,1.338 3,3 L 60,7 C 60,5.338 58.662,4 57,4 L 7,4 Z"/>
 <path style="fill:#3f3f3f;fill-rule:evenodd" d="M 12.475662,39 11,40.477639 16.523817,46 11,51.522361 12.475662,53 17.999478,47.475552 23.522251,53 25,51.522361 19.47514,46 25,40.477639 23.522251,39 17.999478,44.524448 12.475662,39 Z"/>
 <path style="fill:#ebebeb" d="m 40,42 0,2 12,0 0,-2 z m 0,6 0,2 12,0 0,-2 z"/>
</svg>

<svg xmlns="http://www.w3.org/2000/svg" width="64" height="64" version="1">
 <rect style="opacity:0.2" width="56" height="56" x="4" y="4" rx="3" ry="3"/>
 <path style="fill:#6aa22a" d="M 60,31 V 56 C 60,57.662 58.662,59 57,59 H 30 V 31 Z"/>
 <path style="fill:#71c454" d="M 4,29 V 56 C 4,57.662 5.338,59 7,59 H 32 V 29 Z"/>
 <path style="fill:#86d478" d="M 7,3 C 5.338,3 4,4.338 4,6 V 31 H 34 V 3 Z"/>
 <path style="fill:#36862c" d="M 57,3 C 58.662,3 60,4.338 60,6 V 31 H 32 V 3 Z"/>
 <path style="opacity:0.2;fill:#ffffff" d="M 7 3 C 5.338 3 4 4.338 4 6 L 4 7 C 4 5.338 5.338 4 7 4 L 57 4 C 58.662 4 60 5.338 60 7 L 60 6 C 60 4.338 58.662 3 57 3 L 7 3 z"/>
 <circle style="opacity:0.2" cx="46" cy="47" r="16"/>
 <circle style="fill:#3f3f3f" cx="46" cy="46" r="16"/>
 <path style="fill:#3f3f3f" d="M 18,12 V 18 H 12 V 20 H 18 V 26 H 20 V 20 H 26 V 18 H 20 V 12 Z"/>
 <path style="fill:#3f3f3f" d="M 40,18 V 20 H 52 V 18 Z"/>
 <path style="fill:#3f3f3f" d="M 12.476,39 11,40.478 16.524,46 11,51.522 12.476,53 17.999,47.476 23.522,53 25,51.522 19.475,46 25,40.478 23.522,39 17.999,44.524 Z"/>
 <path style="fill:#ebebeb" d="M 40,42 V 44 H 52 V 42 Z M 40,48 V 50 H 52 V 48 Z"/>
</svg>
